!!!COM: Vivaldi, Antonio Lucio
!!!CDT: 1678/03/04-1741/08/28
!!!OPR: 12 sonatas for two violins and basso continuo
!!!OTL: Sonata in D major, op. @{OPS}, no. @{ONM} (@{SCT})
!!!OPS: 1
!!!ONM: 6
!!!OMV: 1. Preludio
!!!SCT: RV 62
!!!SCA: Antonio Vivaldi: Thematisch-systematisches Verzeichnis seiner Werke (Ryom-Verzeichnis)
!!!OMD: Grave
!!!key: D
**kern	**fb	**kern	**kern
*part3	*	*part2	*part1
*staff3	*	*staff2	*staff1
*ICstr&ICklav	*	*ICstr	*ICstr
*Icello&Icemba	*	*Ivioln	*Ivioln
*	*	*I#2	*I#1
*I"Violoncello\nContinuo	*	*I"Violin 2	*I"Violin 1
*I'bc	*	*I'v2	*I'v1
*clefF4	*	*clefG2	*clefG2
*k[f#c#]	*	*k[f#c#]	*k[f#c#]
*D:	*	*D:	*D:
*M4/4	*	*M4/4	*M4/4
*met(c)	*	*met(c)	*met(c)
*MM40	*	*MM40	*MM40
=1	=1	=1	=1
8d\L	.	16r	4ff#y\
.	.	32r	.
.	.	32dd\LLK	.
8D\J	.	16.dd\	.
.	.	32cc#y\JJk	.
8A\L	.	4cc#y\	16r
.	.	.	32r
.	.	.	32aa\LLK
8AA\J	.	.	16.aa\
.	.	.	32ee\JJk
8DD/L	.	16r	4ff#y\
.	.	32r	.
.	.	32dd\LLK	.
8D/J	.	16.dd\	.
.	.	32cc#y\JJk	.
8A\L	.	4cc#y\	16r
.	.	.	32r
.	.	.	32aa\LLK
8AA\J	.	.	16.aa\
.	.	.	32ee\JJk
=2	=2	=2	=2
8DD/L	.	16r	4ff#y\
.	.	32r	.
.	.	32dd\LLK	.
8d\	.	16.dd\	.
.	.	32b\JJk	.
8g\	.	4b\	16r
.	.	.	32r
.	.	.	32gg\LLK
8G\J	.	.	16.gg\
.	.	.	32ee\JJk
8C#y\L	5	16r	4ee\
.	.	32r	.
.	.	32cc#y\LLK	.
8c#y\J	.	16.cc#y\	.
.	.	32a\JJk	.
8f#y\L	.	4a/	16r
.	.	.	32r
.	.	.	32ff#y\LLK
8F#y\J	.	.	16.ff#y\
.	.	.	32dd\JJk
!!LO:LB:g=original
=3	=3	=3	=3
8BB\L	.	16r	4dd\
.	.	32r	.
.	.	32b/LLK	.
8B\J	.	16.b/	.
.	.	32g/JJk	.
8e\L	.	4g/	16r
.	.	.	32r
.	.	.	32ee\LLK
8E\J	.	.	16.ee\
.	.	.	32dd\JJk
8AA/L	.	16r	16.cc#y\LL
.	.	32r	.
.	.	32a/LLK	32cc#y\k
8DD/J	.	16.f#y/	16.dd\
.	.	32g/JJk	32ee\JJk
8A\L	.	8.e/L	8.cc#y\Lt
8AA\J	.	.	.
.	.	16f#y/Jk	16dd\Jk
=4	=4	=4	=4
8D\L	.	4f#y/	16.dd\LL
.	.	.	32ff#y\k
8d\J	.	.	16.ff#y\
.	.	.	32bb\JJk
8B\L	.	16r	4bb\
.	.	32r	.
.	.	32dd\LLK	.
8BB\J	.	16.dd\	.
.	.	32ee\JJk	.
8C#y\L	7	4ee\	16r
.	.	.	32r
.	.	.	32gg\LLK
8c#y\	.	.	16.gg\
.	.	.	32aa\JJk
8f#y\	3	16r	4aa\
.	.	32r	.
.	.	32cc#y\LLK	.
8F#y\J	.	16.cc#y\	.
.	.	32dd\JJk	.
=5	=5	=5	=5
8BB\L	.	4dd\	16r
.	.	.	32r
.	.	.	32ff#y\LLK
8B\	.	.	16.ff#y\
.	.	.	32gg\JJk
8e\	.	16r	4gg\
.	.	32r	.
.	.	32b/LLK	.
8E\J	.	16.b/	.
.	.	32a#X/JJk	.
8F#y/L	7 #	16.a#y/LL	16r
.	.	.	32r
.	.	32f#y/k	32ee\LLK
8BB/	.	16.b/	16.dd\
.	.	32cc#y/JJk	32ee\JJk
8F#y/	#	8.a#X/L	8.cc#y\Lt
8FF#y/J	.	.	.
.	.	16b/Jk	16b\Jk
!!LO:LB:g=original
=6	=6	=6	=6
8BB\L	n	4b\	16.b\LL
.	.	.	32ff#y\k
8B\	#	.	16.ff#y\
.	.	.	32cccn\JJk
8d#X\	7nr	16r	4ccc\
.	.	32r	.
.	.	32ff#y\LLK	.
8D#X\J	.	16.ff#y\	.
.	.	32gg\JJk	.
8E\L	5	16.gg\LL	16r
.	.	.	32r
.	.	32gg\k	32bb\LLK
8A\	6	16.ff#y\	16.aa\
.	.	32ee\JJk	32gg\JJk
8B\	#	8.dd#X\L	8.ff#y\Lt
8BB\J	.	.	.
.	.	16ee\Jk	16ee\Jk
=7	=7	=7	=7
8EE/L	.	4ee\	16.ee\LL
.	.	.	32gg\k
8E/	.	.	16.gg\
.	.	.	32cc#y\JJk
8A/	7	16r	4cc#y\
.	.	32r	.
.	.	32ee\LLK	.
8AA/J	.	16.ee\	.
.	.	32a\JJk	.
8C#y\L	6 5	4a/	16r
.	.	.	32r
.	.	.	32aa\LLK
8AA\	.	.	16.aa\
.	.	.	32cc#y\JJk
8A\	7	16r	8.cc#y\L
.	.	32r	.
.	.	32gg\LLK	.
8AA\J	.	16.gg\	.
.	.	.	16dd\Jk
.	.	32ff#y\JJk	.
=8	=8	=8	=8
8D/L	6 4	16.ff#y\LL	16.dd\LL
.	.	32bb\k	32ddd\k
8F#y/	5nr 3	16.bb\	16.ddd\
.	.	32aa\JJk	32cccn\JJk
8G/	9 4	16.aa\LL	16.ccc\LL
.	.	32gg\k	32bb\k
8GG/J	8 3	16.gg\	16.bb\
.	.	32ff#y\JJk	32aa\JJk
8D\L	.	16.ff#y\LL	16.aa\LL
.	.	32ee\k	32gg\k
8G\	6	16.ee\	16.gg\
.	5	32dd\JJk	32gg\JJk
8A\	7	16.cc#y\LL	[4gg\
.	.	32cc#y\k	.
8B\J	6	16.dd\	.
.	.	32dd\JJk	.
!!LO:LB:g=original
=9	=9	=9	=9
8C#y\L	6 5	8ee\L	16.gg\LL]
.	.	.	32aa\k
8D\	.	16.dd\L	16.ff#y\
.	.	32ee\JJk	32gg\JJk
8A\	.	8.cc#y\L	8.ee\LT
8AA\J	.	.	.
.	.	16dd\Jk	16dd\Jk
8DD/L	.	4dd\	16.dd\LL
.	.	.	32aa\k
8D/	.	.	16.aa\
.	.	.	32dd\JJk
8F#y/	6	16r	4dd\
.	.	32r	.
.	.	32aa\LLK	.
8FF#y/J	.	16.aa\	.
.	.	32dd\JJk	.
=10	=10	=10	=10
8GG/L	.	4dd\	16r
.	.	.	32r
.	.	.	32bb\LLK
8G/	.	.	16.bb\
.	.	.	32ee\JJk
8GG/	6	16r	4ee\
.	.	32r	.
.	.	32bb\LLK	.
8G/J	.	16.bb\	.
.	.	32cc#y\JJk	.
8AA/L	7	16.cc#y\LL	16r
.	.	.	32r
.	.	32cc#y\k	32ee\LLK
8DD/	.	16.dd\	16.ff#y\
.	.	32ee\JJk	32gg\JJk
8A/	.	8.cc#y\L	8.ee\LT
8AA/J	.	.	.
.	.	16dd\Jk	16dd\Jk
=11	=11	=11	=11
8DD/L	.	16.dd/LL	4dd\
.	.	32a/k	.
8F#y/	6	16.a/	.
.	.	32d/JJk	.
8G/	.	[4d/	16r
.	.	.	32r
.	.	.	32b/LLK
8GG/J	.	.	16.b/
.	.	.	32e/JJk
8AA/L	5 4	16.d/LL]	16.e/LL
.	.	32c#y/k	32e/k
8D/J	.	16.d/	16.f#y/
.	.	32e/JJk	32g/JJk
8A\L	3	8.c#y/L	8.e/LT
8AA\J	.	.	.
.	.	16d/Jk	16d/Jk
=12	=12	=12	=12
1D\;	.	1d;	1d/;
==	==	==	==
*-	*-	*-	*-
!!!SMS: RV 62 / Estienne Roger (No. 363), Amsterdam [facs.]
!!!ENC: Fran Bennion   rev. 05/12/21 E Correia
!!!END: 2004/10/07
!!!ONB: Converted from MuseData with musedata2hum on Sat May 11 12:01:55 2024
!!!YEM: (C) 2004, 2019 Center for Computer Assisted Research in the Humanities
!!!system-decoration: [(s1,s2,s3)]
!!!URL-info: https://wiki.ccarh.org/wiki/MuseData:_Antonio_Vivaldi#Op._1:_Suonate_da_camera_a_tr.C3.A8.2C_due_violini_e_violone_o_cembalo Information about Vivaldi Op. 1 on the CCARH wiki
!!!URL-pdf: https://pdf.musedata.org/vivaldi-op01-no06.pdf#page=1 MuseData edition
!!!URL-pdf: https://s9.imslp.org/files/imglnks/usimg/1/18/IMSLP280399-PMLP10351-Vivaldi_Sonatas_Op_1_-_Violino_Primo.pdf#page=9 Violino primo part, Amsterdam: Estienne Roger, n.d.(ca.1723). Plate 363.
!!!URL-pdf: https://s9.imslp.org/files/imglnks/usimg/d/d5/IMSLP280400-PMLP10351-Vivaldi_Sonatas_Op_1_-_Violino_Secondo.pdf#page=8 Violino secondo part, Amsterdam: Estienne Roger, n.d.(ca.1723). Plate 363.
!!!URL-pdf: https://s9.imslp.org/files/imglnks/usimg/8/89/IMSLP280401-PMLP10351-Vivaldi_Sonatas_Op_1_-_Organo_e_Violoncello.pdf#page=7 Organo e Violoncello parts, Amsterdam: Estienne Roger, n.d.(ca.1723). Plate 363.
!!!URL-youtube: https://www.youtube.com/watch?v=P5HHPe_W6Uo&t=1649s L'Arte dell'Arco
!!!title: @{OTL}, mov. @{OMV}
!!!filter-vcross: vcross
!!!EEV: 2024/05/11
!!!source-file: https://bitbucket.org/musedata/vivaldi/src/master/roger/op1/no06/stage2/01/01
!!!source-file: https://bitbucket.org/musedata/vivaldi/src/master/roger/op1/no06/stage2/01/02
!!!source-file: https://bitbucket.org/musedata/vivaldi/src/master/roger/op1/no06/stage2/01/03
!!!source-file: https://bitbucket.org/musedata/vivaldi/src/master/roger/op1/no06/stage2/01/04
